icons/modern/beans.svg

<svg width="32" height="32" viewBox="0 0 32 32" fill="none" xmlns="http://www.w3.org/2000/svg">
<path d="M8.72628 3.26535C8.01219 3.97944 7.5895 4.87926 7.45821 5.80789C7.33332 6.6981 6.64165 7.38978 5.75143 7.51466C4.81959 7.64275 3.92298 8.06544 3.20889 8.78273C3.18647 8.80515 3.16406 8.82756 3.14484 8.84998C1.0346 11.0467 1.97604 14.7036 4.86763 15.6643C6.92344 16.3463 9.18739 15.8116 10.718 14.2777L14.2213 10.7745C15.7519 9.24385 16.2899 6.9799 15.6078 4.92409C14.6439 2.03251 10.987 1.09106 8.79032 3.1981C8.76791 3.22052 8.74549 3.24294 8.72628 3.26535Z" fill="#7F3A38"/>
<path d="M8.72628 3.26535C8.01219 3.97944 7.5895 4.87926 7.45821 5.80789C7.33332 6.6981 6.64165 7.38978 5.75143 7.51466C4.81959 7.64275 3.92298 8.06544 3.20889 8.78273C3.18647 8.80515 3.16406 8.82756 3.14484 8.84998C1.0346 11.0467 1.97604 14.7036 4.86763 15.6643C6.92344 16.3463 9.18739 15.8116 10.718 14.2777L14.2213 10.7745C15.7519 9.24385 16.2899 6.9799 15.6078 4.92409C14.6439 2.03251 10.987 1.09106 8.79032 3.1981C8.76791 3.22052 8.74549 3.24294 8.72628 3.26535Z" fill="url(#paint0_radial_4791_539)"/>
<path d="M8.72628 3.26535C8.01219 3.97944 7.5895 4.87926 7.45821 5.80789C7.33332 6.6981 6.64165 7.38978 5.75143 7.51466C4.81959 7.64275 3.92298 8.06544 3.20889 8.78273C3.18647 8.80515 3.16406 8.82756 3.14484 8.84998C1.0346 11.0467 1.97604 14.7036 4.86763 15.6643C6.92344 16.3463 9.18739 15.8116 10.718 14.2777L14.2213 10.7745C15.7519 9.24385 16.2899 6.9799 15.6078 4.92409C14.6439 2.03251 10.987 1.09106 8.79032 3.1981C8.76791 3.22052 8.74549 3.24294 8.72628 3.26535Z" fill="url(#paint1_radial_4791_539)"/>
<path d="M8.72628 3.26535C8.01219 3.97944 7.5895 4.87926 7.45821 5.80789C7.33332 6.6981 6.64165 7.38978 5.75143 7.51466C4.81959 7.64275 3.92298 8.06544 3.20889 8.78273C3.18647 8.80515 3.16406 8.82756 3.14484 8.84998C1.0346 11.0467 1.97604 14.7036 4.86763 15.6643C6.92344 16.3463 9.18739 15.8116 10.718 14.2777L14.2213 10.7745C15.7519 9.24385 16.2899 6.9799 15.6078 4.92409C14.6439 2.03251 10.987 1.09106 8.79032 3.1981C8.76791 3.22052 8.74549 3.24294 8.72628 3.26535Z" fill="url(#paint2_radial_4791_539)"/>
<path d="M8.57244 5.88501C8.42834 5.8658 8.28744 5.91383 8.18177 6.0163C8.11132 6.08675 8.06649 6.17641 8.05048 6.27888C7.98324 6.74961 7.77509 7.1755 7.44527 7.50532C7.11544 7.83515 6.68955 8.04649 6.21883 8.11054C6.11956 8.12334 6.0299 8.16817 5.95625 8.24182C5.85378 8.34429 5.80574 8.48839 5.82496 8.63249C5.86018 8.88226 6.09394 9.05838 6.34371 9.02316C7.01297 8.9303 7.61819 8.62929 8.09211 8.15537C8.56604 7.68144 8.86704 7.07623 8.95991 6.40697C8.97592 6.28529 8.94389 6.1636 8.87024 6.06754C8.803 5.96507 8.69412 5.90103 8.57244 5.88501Z" fill="url(#paint3_linear_4791_539)"/>
<path d="M26.2744 4.36686C26.7067 5.28269 26.7995 6.26896 26.6074 7.18799C26.4217 8.0686 26.8412 8.9524 27.6353 9.37189C28.4679 9.80739 29.1692 10.5087 29.5983 11.4245C29.6111 11.4533 29.6239 11.4789 29.6367 11.5078C30.8791 14.2905 28.7561 17.4094 25.7108 17.3357C23.5461 17.2813 21.596 16.01 20.6737 14.0535L18.5635 9.57363C17.6413 7.61388 17.9038 5.3019 19.2392 3.59833C21.122 1.20309 24.8782 1.55533 26.2327 4.2836C26.2488 4.31242 26.2616 4.33804 26.2744 4.36686Z" fill="url(#paint4_radial_4791_539)"/>
<path d="M26.2744 4.36686C26.7067 5.28269 26.7995 6.26896 26.6074 7.18799C26.4217 8.0686 26.8412 8.9524 27.6353 9.37189C28.4679 9.80739 29.1692 10.5087 29.5983 11.4245C29.6111 11.4533 29.6239 11.4789 29.6367 11.5078C30.8791 14.2905 28.7561 17.4094 25.7108 17.3357C23.5461 17.2813 21.596 16.01 20.6737 14.0535L18.5635 9.57363C17.6413 7.61388 17.9038 5.3019 19.2392 3.59833C21.122 1.20309 24.8782 1.55533 26.2327 4.2836C26.2488 4.31242 26.2616 4.33804 26.2744 4.36686Z" fill="url(#paint5_radial_4791_539)"/>
<path d="M26.2744 4.36686C26.7067 5.28269 26.7995 6.26896 26.6074 7.18799C26.4217 8.0686 26.8412 8.9524 27.6353 9.37189C28.4679 9.80739 29.1692 10.5087 29.5983 11.4245C29.6111 11.4533 29.6239 11.4789 29.6367 11.5078C30.8791 14.2905 28.7561 17.4094 25.7108 17.3357C23.5461 17.2813 21.596 16.01 20.6737 14.0535L18.5635 9.57363C17.6413 7.61388 17.9038 5.3019 19.2392 3.59833C21.122 1.20309 24.8782 1.55533 26.2327 4.2836C26.2488 4.31242 26.2616 4.33804 26.2744 4.36686Z" fill="url(#paint6_radial_4791_539)"/>
<path d="M26.2744 4.36686C26.7067 5.28269 26.7995 6.26896 26.6074 7.18799C26.4217 8.0686 26.8412 8.9524 27.6353 9.37189C28.4679 9.80739 29.1692 10.5087 29.5983 11.4245C29.6111 11.4533 29.6239 11.4789 29.6367 11.5078C30.8791 14.2905 28.7561 17.4094 25.7108 17.3357C23.5461 17.2813 21.596 16.01 20.6737 14.0535L18.5635 9.57363C17.6413 7.61388 17.9038 5.3019 19.2392 3.59833C21.122 1.20309 24.8782 1.55533 26.2327 4.2836C26.2488 4.31242 26.2616 4.33804 26.2744 4.36686Z" fill="url(#paint7_radial_4791_539)"/>
<path d="M25.5315 6.88341C25.6756 6.91223 25.7908 7.00509 25.8549 7.13958C25.8965 7.22924 25.9093 7.33171 25.8901 7.43098C25.7908 7.8985 25.8453 8.36602 26.0438 8.79191C26.2424 9.2146 26.5722 9.55724 26.9917 9.77819C27.0813 9.82622 27.1518 9.89667 27.1934 9.98954C27.2542 10.1208 27.251 10.2713 27.1838 10.3994C27.0653 10.6236 26.7867 10.71 26.5626 10.5915C25.9638 10.2777 25.4962 9.791 25.2113 9.18258C24.9263 8.57417 24.8462 7.90491 24.9871 7.24205C25.0127 7.12037 25.0832 7.0179 25.1856 6.95065C25.2881 6.88341 25.4098 6.86099 25.5315 6.88341Z" fill="url(#paint8_linear_4791_539)"/>
<path d="M11.8837 17.0374C11.5026 17.9756 11.4642 18.9651 11.7075 19.8745C11.9413 20.7423 11.5698 21.6517 10.8013 22.1129C9.99435 22.5932 9.3315 23.3329 8.95364 24.2711C8.94083 24.3 8.93123 24.3288 8.91842 24.3576C7.82967 27.2012 10.1224 30.2048 13.1581 29.9615C15.3164 29.7885 17.1929 28.4148 18.0095 26.407L19.8699 21.8183C20.6833 19.8105 20.2958 17.5177 18.8676 15.891C16.8567 13.6014 13.1229 14.1586 11.9221 16.9573C11.9093 16.9797 11.8965 17.0085 11.8837 17.0374Z" fill="#7F3A38"/>
<path d="M11.8837 17.0374C11.5026 17.9756 11.4642 18.9651 11.7075 19.8745C11.9413 20.7423 11.5698 21.6517 10.8013 22.1129C9.99435 22.5932 9.3315 23.3329 8.95364 24.2711C8.94083 24.3 8.93123 24.3288 8.91842 24.3576C7.82967 27.2012 10.1224 30.2048 13.1581 29.9615C15.3164 29.7885 17.1929 28.4148 18.0095 26.407L19.8699 21.8183C20.6833 19.8105 20.2958 17.5177 18.8676 15.891C16.8567 13.6014 13.1229 14.1586 11.9221 16.9573C11.9093 16.9797 11.8965 17.0085 11.8837 17.0374Z" fill="url(#paint9_radial_4791_539)"/>
<path d="M11.8837 17.0374C11.5026 17.9756 11.4642 18.9651 11.7075 19.8745C11.9413 20.7423 11.5698 21.6517 10.8013 22.1129C9.99435 22.5932 9.3315 23.3329 8.95364 24.2711C8.94083 24.3 8.93123 24.3288 8.91842 24.3576C7.82967 27.2012 10.1224 30.2048 13.1581 29.9615C15.3164 29.7885 17.1929 28.4148 18.0095 26.407L19.8699 21.8183C20.6833 19.8105 20.2958 17.5177 18.8676 15.891C16.8567 13.6014 13.1229 14.1586 11.9221 16.9573C11.9093 16.9797 11.8965 17.0085 11.8837 17.0374Z" fill="url(#paint10_radial_4791_539)"/>
<path d="M11.8837 17.0374C11.5026 17.9756 11.4642 18.9651 11.7075 19.8745C11.9413 20.7423 11.5698 21.6517 10.8013 22.1129C9.99435 22.5932 9.3315 23.3329 8.95364 24.2711C8.94083 24.3 8.93123 24.3288 8.91842 24.3576C7.82967 27.2012 10.1224 30.2048 13.1581 29.9615C15.3164 29.7885 17.1929 28.4148 18.0095 26.407L19.8699 21.8183C20.6833 19.8105 20.2958 17.5177 18.8676 15.891C16.8567 13.6014 13.1229 14.1586 11.9221 16.9573C11.9093 16.9797 11.8965 17.0085 11.8837 17.0374Z" fill="url(#paint11_radial_4791_539)"/>
<path d="M11.8837 17.0374C11.5026 17.9756 11.4642 18.9651 11.7075 19.8745C11.9413 20.7423 11.5698 21.6517 10.8013 22.1129C9.99435 22.5932 9.3315 23.3329 8.95364 24.2711C8.94083 24.3 8.93123 24.3288 8.91842 24.3576C7.82967 27.2012 10.1224 30.2048 13.1581 29.9615C15.3164 29.7885 17.1929 28.4148 18.0095 26.407L19.8699 21.8183C20.6833 19.8105 20.2958 17.5177 18.8676 15.891C16.8567 13.6014 13.1229 14.1586 11.9221 16.9573C11.9093 16.9797 11.8965 17.0085 11.8837 17.0374Z" fill="url(#paint12_radial_4791_539)"/>
<path d="M12.7674 19.5102C12.6265 19.5486 12.5144 19.6478 12.46 19.7823C12.4215 19.8752 12.4151 19.9777 12.4408 20.0737C12.5624 20.5349 12.5368 21.0056 12.3607 21.4411C12.1846 21.8734 11.8772 22.232 11.4673 22.4754C11.3808 22.5266 11.3136 22.6035 11.2784 22.6963C11.2239 22.8308 11.2335 22.9813 11.3104 23.1062C11.4417 23.324 11.7235 23.3944 11.9412 23.2663C12.5208 22.9205 12.9595 22.4081 13.2125 21.7869C13.4655 21.1657 13.5071 20.49 13.331 19.8368C13.299 19.7183 13.2221 19.619 13.1164 19.5582C13.0076 19.4941 12.8859 19.4781 12.7674 19.5102Z" fill="#DD9E85"/>
<defs>
<radialGradient id="paint0_radial_4791_539" cx="0" cy="0" r="1" gradientUnits="userSpaceOnUse" gradientTransform="translate(6.3125 6.46875) rotate(135) scale(12.3744 9.24608)">
<stop offset="0.0940398" stop-color="#72413E"/>
<stop offset="0.317857" stop-color="#813A3A"/>
<stop offset="0.639286" stop-color="#954952"/>
<stop offset="0.935714" stop-color="#83333B"/>
</radialGradient>
<radialGradient id="paint1_radial_4791_539" cx="0" cy="0" r="1" gradientUnits="userSpaceOnUse" gradientTransform="translate(13.875 4.84375) rotate(86.5626) scale(4.16957 3.28013)">
<stop stop-color="#AF6C69"/>
<stop offset="1" stop-color="#AF6B67" stop-opacity="0"/>
</radialGradient>
<radialGradient id="paint2_radial_4791_539" cx="0" cy="0" r="1" gradientUnits="userSpaceOnUse" gradientTransform="translate(6.25 15.956) rotate(94.1928) scale(4.27423 9.14949)">
<stop stop-color="#8A4264"/>
<stop offset="1" stop-color="#8A4168" stop-opacity="0"/>
</radialGradient>
<linearGradient id="paint3_linear_4791_539" x1="5.8208" y1="8.53125" x2="9.8125" y2="7.03125" gradientUnits="userSpaceOnUse">
<stop stop-color="#D2AB88"/>
<stop offset="0.675117" stop-color="#C89971"/>
</linearGradient>
<radialGradient id="paint4_radial_4791_539" cx="0" cy="0" r="1" gradientUnits="userSpaceOnUse" gradientTransform="translate(27.5 8.21875) rotate(153.997) scale(8.55337 10.4538)">
<stop offset="0.0250801" stop-color="#9E534F"/>
<stop offset="0.437673" stop-color="#A6605D"/>
<stop offset="0.826467" stop-color="#7B353C"/>
<stop offset="1" stop-color="#682D32"/>
</radialGradient>
<radialGradient id="paint5_radial_4791_539" cx="0" cy="0" r="1" gradientUnits="userSpaceOnUse" gradientTransform="translate(24.875 16.9688) rotate(28.2274) scale(5.8143 4.54147)">
<stop stop-color="#8A416D"/>
<stop offset="1" stop-color="#8B4370" stop-opacity="0"/>
</radialGradient>
<radialGradient id="paint6_radial_4791_539" cx="0" cy="0" r="1" gradientUnits="userSpaceOnUse" gradientTransform="translate(25.0625 4.59375) rotate(118.217) scale(2.9081 2.6645)">
<stop stop-color="#B26E6B"/>
<stop offset="1" stop-color="#B16E6A" stop-opacity="0"/>
</radialGradient>
<radialGradient id="paint7_radial_4791_539" cx="0" cy="0" r="1" gradientUnits="userSpaceOnUse" gradientTransform="translate(28.1875 11.9687) rotate(156.297) scale(2.79858 2.18593)">
<stop stop-color="#B26F6B"/>
<stop offset="1" stop-color="#B06D6A" stop-opacity="0"/>
</radialGradient>
<linearGradient id="paint8_linear_4791_539" x1="25.3125" y1="7.46875" x2="27.625" y2="10.6447" gradientUnits="userSpaceOnUse">
<stop stop-color="#F9CFA8"/>
<stop offset="1" stop-color="#F8CEA3"/>
</linearGradient>
<radialGradient id="paint9_radial_4791_539" cx="0" cy="0" r="1" gradientUnits="userSpaceOnUse" gradientTransform="translate(10.4375 20.2187) rotate(117.424) scale(10.9918 8.45204)">
<stop offset="0.234653" stop-color="#744040"/>
<stop offset="0.323577" stop-color="#81393D"/>
<stop offset="0.604163" stop-color="#9E4F59"/>
<stop offset="0.77827" stop-color="#A2565B"/>
<stop offset="1" stop-color="#9D4C53"/>
</radialGradient>
<radialGradient id="paint10_radial_4791_539" cx="0" cy="0" r="1" gradientUnits="userSpaceOnUse" gradientTransform="translate(14.4664 23.6563) rotate(112.677) scale(12.3958 7.03499)">
<stop offset="0.574341" stop-color="#8B3D39" stop-opacity="0"/>
<stop offset="0.718383" stop-color="#8D3E39"/>
<stop offset="0.866853" stop-color="#6B2E2D"/>
</radialGradient>
<radialGradient id="paint11_radial_4791_539" cx="0" cy="0" r="1" gradientUnits="userSpaceOnUse" gradientTransform="translate(12.375 31.0938) rotate(96.5366) scale(6.03926 32.5468)">
<stop offset="0.215273" stop-color="#96477B"/>
<stop offset="0.583382" stop-color="#93395C"/>
<stop offset="1" stop-color="#93395D" stop-opacity="0"/>
</radialGradient>
<radialGradient id="paint12_radial_4791_539" cx="0" cy="0" r="1" gradientUnits="userSpaceOnUse" gradientTransform="translate(17.625 18.4063) rotate(64.8552) scale(3.38309 2.00207)">
<stop stop-color="#AA6766"/>
<stop offset="1" stop-color="#A96664" stop-opacity="0"/>
</radialGradient>
</defs>
</svg>

<svg width="32" height="32" fill="none" xmlns="http://www.w3.org/2000/svg"><path d="M8.726 3.265a4.474 4.474 0 0 0-1.268 2.543 1.997 1.997 0 0 1-1.707 1.707A4.425 4.425 0 0 0 3.145 8.85c-2.11 2.197-1.169 5.854 1.723 6.814a5.718 5.718 0 0 0 5.85-1.386l3.503-3.504a5.725 5.725 0 0 0 1.387-5.85c-.964-2.891-4.621-3.833-6.818-1.726-.022.023-.045.045-.064.067Z" fill="#7F3A38"/><path d="M8.726 3.265a4.474 4.474 0 0 0-1.268 2.543 1.997 1.997 0 0 1-1.707 1.707A4.425 4.425 0 0 0 3.145 8.85c-2.11 2.197-1.169 5.854 1.723 6.814a5.718 5.718 0 0 0 5.85-1.386l3.503-3.504a5.725 5.725 0 0 0 1.387-5.85c-.964-2.891-4.621-3.833-6.818-1.726-.022.023-.045.045-.064.067Z" fill="url(#a)"/><path d="M8.726 3.265a4.474 4.474 0 0 0-1.268 2.543 1.997 1.997 0 0 1-1.707 1.707A4.425 4.425 0 0 0 3.145 8.85c-2.11 2.197-1.169 5.854 1.723 6.814a5.718 5.718 0 0 0 5.85-1.386l3.503-3.504a5.725 5.725 0 0 0 1.387-5.85c-.964-2.891-4.621-3.833-6.818-1.726-.022.023-.045.045-.064.067Z" fill="url(#b)"/><path d="M8.726 3.265a4.474 4.474 0 0 0-1.268 2.543 1.997 1.997 0 0 1-1.707 1.707A4.425 4.425 0 0 0 3.145 8.85c-2.11 2.197-1.169 5.854 1.723 6.814a5.718 5.718 0 0 0 5.85-1.386l3.503-3.504a5.725 5.725 0 0 0 1.387-5.85c-.964-2.891-4.621-3.833-6.818-1.726-.022.023-.045.045-.064.067Z" fill="url(#c)"/><path d="M8.572 5.885a.468.468 0 0 0-.522.394A2.13 2.13 0 0 1 6.218 8.11a.464.464 0 0 0-.394.522c.036.25.27.425.52.39a3.046 3.046 0 0 0 1.748-.868c.474-.474.775-1.079.868-1.748a.458.458 0 0 0-.09-.34.417.417 0 0 0-.298-.182Z" fill="url(#d)"/><path d="M26.274 4.367a4.45 4.45 0 0 1 .333 2.821 1.996 1.996 0 0 0 1.028 2.184 4.428 4.428 0 0 1 1.963 2.053l.039.083c1.242 2.783-.88 5.901-3.926 5.828a5.73 5.73 0 0 1-5.037-3.282l-2.11-4.48a5.731 5.731 0 0 1 .675-5.976c1.883-2.395 5.64-2.043 6.994.686a.98.98 0 0 1 .041.083Z" fill="url(#e)"/><path d="M26.274 4.367a4.45 4.45 0 0 1 .333 2.821 1.996 1.996 0 0 0 1.028 2.184 4.428 4.428 0 0 1 1.963 2.053l.039.083c1.242 2.783-.88 5.901-3.926 5.828a5.73 5.73 0 0 1-5.037-3.282l-2.11-4.48a5.731 5.731 0 0 1 .675-5.976c1.883-2.395 5.64-2.043 6.994.686a.98.98 0 0 1 .041.083Z" fill="url(#f)"/><path d="M26.274 4.367a4.45 4.45 0 0 1 .333 2.821 1.996 1.996 0 0 0 1.028 2.184 4.428 4.428 0 0 1 1.963 2.053l.039.083c1.242 2.783-.88 5.901-3.926 5.828a5.73 5.73 0 0 1-5.037-3.282l-2.11-4.48a5.731 5.731 0 0 1 .675-5.976c1.883-2.395 5.64-2.043 6.994.686a.98.98 0 0 1 .041.083Z" fill="url(#g)"/><path d="M26.274 4.367a4.45 4.45 0 0 1 .333 2.821 1.996 1.996 0 0 0 1.028 2.184 4.428 4.428 0 0 1 1.963 2.053l.039.083c1.242 2.783-.88 5.901-3.926 5.828a5.73 5.73 0 0 1-5.037-3.282l-2.11-4.48a5.731 5.731 0 0 1 .675-5.976c1.883-2.395 5.64-2.043 6.994.686a.98.98 0 0 1 .041.083Z" fill="url(#h)"/><path d="M25.532 6.883c.144.03.259.122.323.257.041.09.054.192.035.291a2.136 2.136 0 0 0 1.102 2.347.462.462 0 0 1 .192.621.46.46 0 0 1-.621.192 3.032 3.032 0 0 1-1.352-1.408 3.043 3.043 0 0 1-.224-1.941.458.458 0 0 1 .199-.291c.102-.068.224-.09.346-.068Z" fill="url(#i)"/><path d="M11.884 17.037a4.45 4.45 0 0 0-.177 2.838 2 2 0 0 1-.906 2.238 4.43 4.43 0 0 0-1.847 2.158l-.036.087c-1.088 2.843 1.204 5.847 4.24 5.604a5.73 5.73 0 0 0 4.851-3.555l1.86-4.589a5.724 5.724 0 0 0-1.001-5.927c-2.011-2.29-5.745-1.732-6.946 1.066a.934.934 0 0 0-.038.08Z" fill="#7F3A38"/><path d="M11.884 17.037a4.45 4.45 0 0 0-.177 2.838 2 2 0 0 1-.906 2.238 4.43 4.43 0 0 0-1.847 2.158l-.036.087c-1.088 2.843 1.204 5.847 4.24 5.604a5.73 5.73 0 0 0 4.851-3.555l1.86-4.589a5.724 5.724 0 0 0-1.001-5.927c-2.011-2.29-5.745-1.732-6.946 1.066a.934.934 0 0 0-.038.08Z" fill="url(#j)"/><path d="M11.884 17.037a4.45 4.45 0 0 0-.177 2.838 2 2 0 0 1-.906 2.238 4.43 4.43 0 0 0-1.847 2.158l-.036.087c-1.088 2.843 1.204 5.847 4.24 5.604a5.73 5.73 0 0 0 4.851-3.555l1.86-4.589a5.724 5.724 0 0 0-1.001-5.927c-2.011-2.29-5.745-1.732-6.946 1.066a.934.934 0 0 0-.038.08Z" fill="url(#k)"/><path d="M11.884 17.037a4.45 4.45 0 0 0-.177 2.838 2 2 0 0 1-.906 2.238 4.43 4.43 0 0 0-1.847 2.158l-.036.087c-1.088 2.843 1.204 5.847 4.24 5.604a5.73 5.73 0 0 0 4.851-3.555l1.86-4.589a5.724 5.724 0 0 0-1.001-5.927c-2.011-2.29-5.745-1.732-6.946 1.066a.934.934 0 0 0-.038.08Z" fill="url(#l)"/><path d="M11.884 17.037a4.45 4.45 0 0 0-.177 2.838 2 2 0 0 1-.906 2.238 4.43 4.43 0 0 0-1.847 2.158l-.036.087c-1.088 2.843 1.204 5.847 4.24 5.604a5.73 5.73 0 0 0 4.851-3.555l1.86-4.589a5.724 5.724 0 0 0-1.001-5.927c-2.011-2.29-5.745-1.732-6.946 1.066a.934.934 0 0 0-.038.08Z" fill="url(#m)"/><path d="M12.767 19.51a.459.459 0 0 0-.326.564 2.129 2.129 0 0 1-.973 2.402.439.439 0 0 0-.19.22.463.463 0 0 0 .663.57 3.049 3.049 0 0 0 1.271-1.48 3.038 3.038 0 0 0 .119-1.95.458.458 0 0 0-.215-.278.446.446 0 0 0-.349-.048Z" fill="#DD9E85"/><defs><radialGradient id="a" cx="0" cy="0" r="1" gradientUnits="userSpaceOnUse" gradientTransform="matrix(-8.75002 8.75002 -6.53797 -6.53797 6.313 6.469)"><stop offset=".094" stop-color="#72413E"/><stop offset=".318" stop-color="#813A3A"/><stop offset=".639" stop-color="#954952"/><stop offset=".936" stop-color="#83333B"/></radialGradient><radialGradient id="b" cx="0" cy="0" r="1" gradientUnits="userSpaceOnUse" gradientTransform="matrix(.25 4.16207 -3.27423 .19667 13.875 4.844)"><stop stop-color="#AF6C69"/><stop offset="1" stop-color="#AF6B67" stop-opacity="0"/></radialGradient><radialGradient id="c" cx="0" cy="0" r="1" gradientUnits="userSpaceOnUse" gradientTransform="matrix(-.3125 4.2628 -9.125 -.66895 6.25 15.956)"><stop stop-color="#8A4264"/><stop offset="1" stop-color="#8A4168" stop-opacity="0"/></radialGradient><radialGradient id="e" cx="0" cy="0" r="1" gradientUnits="userSpaceOnUse" gradientTransform="rotate(153.997 12.801 7.284) scale(8.55337 10.4538)"><stop offset=".025" stop-color="#9E534F"/><stop offset=".438" stop-color="#A6605D"/><stop offset=".826" stop-color="#7B353C"/><stop offset="1" stop-color="#682D32"/></radialGradient><radialGradient id="f" cx="0" cy="0" r="1" gradientUnits="userSpaceOnUse" gradientTransform="matrix(5.12285 2.75 -2.14799 4.00139 24.875 16.969)"><stop stop-color="#8A416D"/><stop offset="1" stop-color="#8B4370" stop-opacity="0"/></radialGradient><radialGradient id="g" cx="0" cy="0" r="1" gradientUnits="userSpaceOnUse" gradientTransform="rotate(118.217 11.157 9.794) scale(2.9081 2.6645)"><stop stop-color="#B26E6B"/><stop offset="1" stop-color="#B16E6A" stop-opacity="0"/></radialGradient><radialGradient id="h" cx="0" cy="0" r="1" gradientUnits="userSpaceOnUse" gradientTransform="rotate(156.297 12.838 8.942) scale(2.79858 2.18593)"><stop stop-color="#B26F6B"/><stop offset="1" stop-color="#B06D6A" stop-opacity="0"/></radialGradient><radialGradient id="j" cx="0" cy="0" r="1" gradientUnits="userSpaceOnUse" gradientTransform="rotate(117.424 -.925 13.28) scale(10.9918 8.45204)"><stop offset=".235" stop-color="#744040"/><stop offset=".324" stop-color="#81393D"/><stop offset=".604" stop-color="#9E4F59"/><stop offset=".778" stop-color="#A2565B"/><stop offset="1" stop-color="#9D4C53"/></radialGradient><radialGradient id="k" cx="0" cy="0" r="1" gradientUnits="userSpaceOnUse" gradientTransform="matrix(-4.77902 11.43752 -6.49114 -2.71224 14.466 23.656)"><stop offset=".574" stop-color="#8B3D39" stop-opacity="0"/><stop offset=".718" stop-color="#8D3E39"/><stop offset=".867" stop-color="#6B2E2D"/></radialGradient><radialGradient id="l" cx="0" cy="0" r="1" gradientUnits="userSpaceOnUse" gradientTransform="matrix(-.6875 6 -32.33522 -3.70506 12.375 31.094)"><stop offset=".215" stop-color="#96477B"/><stop offset=".583" stop-color="#93395C"/><stop offset="1" stop-color="#93395D" stop-opacity="0"/></radialGradient><radialGradient id="m" cx="0" cy="0" r="1" gradientUnits="userSpaceOnUse" gradientTransform="matrix(1.4375 3.0625 -1.81235 .8507 17.625 18.406)"><stop stop-color="#AA6766"/><stop offset="1" stop-color="#A96664" stop-opacity="0"/></radialGradient><linearGradient id="d" x1="5.821" y1="8.531" x2="9.813" y2="7.031" gradientUnits="userSpaceOnUse"><stop stop-color="#D2AB88"/><stop offset=".675" stop-color="#C89971"/></linearGradient><linearGradient id="i" x1="25.313" y1="7.469" x2="27.625" y2="10.645" gradientUnits="userSpaceOnUse"><stop stop-color="#F9CFA8"/><stop offset="1" stop-color="#F8CEA3"/></linearGradient></defs></svg>
